images/3247272.svg

<?xml version="1.0" encoding="UTF-8"?>
<svg xmlns="http://www.w3.org/2000/svg" xmlns:xlink="http://www.w3.org/1999/xlink" width="300pt" height="300pt" viewBox="0 0 300 300" version="1.1">
<defs>
<g>
<symbol overflow="visible" id="glyph0-0">
<path style="stroke:none;" d="M 0.59375 2.125 L 0.59375 -8.46875 L 6.59375 -8.46875 L 6.59375 2.125 Z M 1.265625 1.453125 L 5.9375 1.453125 L 5.9375 -7.78125 L 1.265625 -7.78125 Z M 1.265625 1.453125 "/>
</symbol>
<symbol overflow="visible" id="glyph0-1">
<path style="stroke:none;" d="M 1.171875 -8.75 L 2.765625 -8.75 L 6.65625 -1.4375 L 6.65625 -8.75 L 7.796875 -8.75 L 7.796875 0 L 6.203125 0 L 2.328125 -7.3125 L 2.328125 0 L 1.171875 0 Z M 1.171875 -8.75 "/>
</symbol>
<symbol overflow="visible" id="glyph0-2">
<path style="stroke:none;" d="M 1.171875 -8.75 L 2.359375 -8.75 L 2.359375 -5.15625 L 6.65625 -5.15625 L 6.65625 -8.75 L 7.84375 -8.75 L 7.84375 0 L 6.65625 0 L 6.65625 -4.171875 L 2.359375 -4.171875 L 2.359375 0 L 1.171875 0 Z M 1.171875 -8.75 "/>
</symbol>
<symbol overflow="visible" id="glyph0-3">
<path style="stroke:none;" d="M 4.734375 -7.953125 C 3.867188 -7.953125 3.179688 -7.628906 2.671875 -6.984375 C 2.171875 -6.347656 1.921875 -5.472656 1.921875 -4.359375 C 1.921875 -3.265625 2.171875 -2.394531 2.671875 -1.75 C 3.179688 -1.113281 3.867188 -0.796875 4.734375 -0.796875 C 5.585938 -0.796875 6.265625 -1.113281 6.765625 -1.75 C 7.273438 -2.394531 7.53125 -3.265625 7.53125 -4.359375 C 7.53125 -5.472656 7.273438 -6.347656 6.765625 -6.984375 C 6.265625 -7.628906 5.585938 -7.953125 4.734375 -7.953125 Z M 4.734375 -8.90625 C 5.953125 -8.90625 6.925781 -8.492188 7.65625 -7.671875 C 8.394531 -6.847656 8.765625 -5.742188 8.765625 -4.359375 C 8.765625 -2.984375 8.394531 -1.882812 7.65625 -1.0625 C 6.925781 -0.238281 5.953125 0.171875 4.734375 0.171875 C 3.503906 0.171875 2.519531 -0.238281 1.78125 -1.0625 C 1.039062 -1.882812 0.671875 -2.984375 0.671875 -4.359375 C 0.671875 -5.742188 1.039062 -6.847656 1.78125 -7.671875 C 2.519531 -8.492188 3.503906 -8.90625 4.734375 -8.90625 Z M 4.734375 -8.90625 "/>
</symbol>
</g>
</defs>
<g id="surface40933">
<rect x="0" y="0" width="300" height="300" style="fill:rgb(100%,100%,100%);fill-opacity:1;stroke:none;"/>
<path style=" stroke:none;fill-rule:nonzero;fill:rgb(0%,0%,0%);fill-opacity:1;" d="M 101.429688 186.089844 L 128.976562 174.269531 L 123.269531 165.554688 Z M 101.429688 186.089844 "/>
<path style="fill:none;stroke-width:1.2;stroke-linecap:butt;stroke-linejoin:miter;stroke:rgb(0%,0%,0%);stroke-opacity:1;stroke-miterlimit:10;" d="M 101.429688 186.089844 L 75.074219 172.792969 "/>
<path style="fill:none;stroke-width:1.2;stroke-linecap:butt;stroke-linejoin:miter;stroke:rgb(0%,0%,0%);stroke-opacity:1;stroke-miterlimit:10;" d="M 101.429688 186.089844 L 103.09375 215.5625 "/>
<path style="fill:none;stroke-width:1;stroke-linecap:butt;stroke-linejoin:miter;stroke:rgb(0%,0%,0%);stroke-opacity:1;stroke-miterlimit:10;" d="M 75.074219 172.792969 L 75.074219 172.792969 M 72.09375 172.4375 L 72.152344 173.476562 M 69.117188 172.082031 L 69.234375 174.164062 M 66.136719 171.730469 L 66.3125 174.851562 M 63.15625 171.375 L 63.390625 175.539062 M 60.179688 171.019531 L 60.472656 176.226562 M 57.199219 170.667969 L 57.550781 176.914062 M 54.21875 170.3125 L 54.632812 177.601562 M 51.242188 169.957031 L 51.710938 178.285156 M 48.261719 169.605469 L 48.789062 178.972656 M 45.304688 169.253906 L 45.894531 179.65625 "/>
<path style="fill:none;stroke-width:1.2;stroke-linecap:butt;stroke-linejoin:miter;stroke:rgb(0%,0%,0%);stroke-opacity:1;stroke-miterlimit:10;" d="M 58.898438 148.097656 L 75.074219 172.792969 "/>
<path style="fill:none;stroke-width:1.2;stroke-linecap:butt;stroke-linejoin:miter;stroke:rgb(0%,0%,0%);stroke-opacity:1;stroke-miterlimit:10;" d="M 45.601562 174.453125 L 58.898438 148.097656 "/>
<path style="fill:none;stroke-width:1;stroke-linecap:butt;stroke-linejoin:miter;stroke:rgb(0%,0%,0%);stroke-opacity:1;stroke-miterlimit:10;" d="M 58.898438 148.097656 L 58.898438 148.097656 M 56.84375 145.910156 L 56.21875 146.746094 M 54.789062 143.726562 L 53.539062 145.394531 M 52.734375 141.539062 L 50.859375 144.042969 M 50.679688 139.351562 L 48.183594 142.695312 M 48.625 137.167969 L 45.503906 141.34375 M 46.570312 134.980469 L 42.824219 139.992188 M 44.515625 132.792969 L 40.148438 138.640625 M 42.460938 130.609375 L 37.46875 137.289062 M 40.40625 128.421875 L 34.789062 135.9375 M 38.367188 126.253906 L 32.132812 134.597656 "/>
<path style="fill:none;stroke-width:1.2;stroke-linecap:butt;stroke-linejoin:miter;stroke:rgb(0%,0%,0%);stroke-opacity:1;stroke-miterlimit:10;" d="M 58.898438 148.097656 L 80.40625 127.878906 "/>
<path style="fill:none;stroke-width:1;stroke-linecap:butt;stroke-linejoin:miter;stroke:rgb(0%,0%,0%);stroke-opacity:1;stroke-miterlimit:10;" d="M 80.40625 127.878906 L 80.40625 127.878906 M 80.238281 124.882812 L 79.222656 125.121094 M 80.070312 121.886719 L 78.039062 122.367188 M 79.902344 118.894531 L 76.855469 119.609375 M 79.730469 115.898438 L 75.671875 116.851562 M 79.5625 112.902344 L 74.488281 114.09375 M 79.394531 109.90625 L 73.304688 111.339844 M 79.226562 106.910156 L 72.121094 108.582031 M 79.058594 103.917969 L 70.9375 105.824219 M 78.890625 100.921875 L 69.753906 103.070312 M 78.722656 97.949219 L 68.578125 100.332031 "/>
<path style="fill:none;stroke-width:1.2;stroke-linecap:butt;stroke-linejoin:miter;stroke:rgb(0%,0%,0%);stroke-opacity:1;stroke-miterlimit:10;" d="M 80.40625 127.878906 L 94.539062 132.136719 "/>
<path style="fill:none;stroke-width:1.2;stroke-linecap:butt;stroke-linejoin:miter;stroke:rgb(0%,0%,100%);stroke-opacity:1;stroke-miterlimit:10;" d="M 94.539062 132.136719 L 108.671875 136.398438 "/>
<path style="fill:none;stroke-width:1.2;stroke-linecap:butt;stroke-linejoin:miter;stroke:rgb(0%,0%,0%);stroke-opacity:1;stroke-miterlimit:10;" d="M 73.652344 99.140625 L 95.160156 78.921875 "/>
<path style="fill:none;stroke-width:1.2;stroke-linecap:butt;stroke-linejoin:miter;stroke:rgb(0%,0%,0%);stroke-opacity:1;stroke-miterlimit:10;" d="M 71.042969 92.058594 L 88.253906 75.882812 "/>
<path style="fill:none;stroke-width:1.2;stroke-linecap:butt;stroke-linejoin:miter;stroke:rgb(0%,0%,0%);stroke-opacity:1;stroke-miterlimit:10;" d="M 45.386719 90.625 L 73.652344 99.140625 "/>
<path style="fill:none;stroke-width:1.2;stroke-linecap:butt;stroke-linejoin:miter;stroke:rgb(0%,0%,0%);stroke-opacity:1;stroke-miterlimit:10;" d="M 95.160156 78.921875 L 88.40625 50.183594 "/>
<path style="fill:none;stroke-width:1.2;stroke-linecap:butt;stroke-linejoin:miter;stroke:rgb(0%,0%,0%);stroke-opacity:1;stroke-miterlimit:10;" d="M 88.40625 50.183594 L 60.140625 41.667969 "/>
<path style="fill:none;stroke-width:1.2;stroke-linecap:butt;stroke-linejoin:miter;stroke:rgb(0%,0%,0%);stroke-opacity:1;stroke-miterlimit:10;" d="M 83.574219 55.984375 L 60.960938 49.167969 "/>
<path style="fill:none;stroke-width:1.2;stroke-linecap:butt;stroke-linejoin:miter;stroke:rgb(0%,0%,0%);stroke-opacity:1;stroke-miterlimit:10;" d="M 60.140625 41.667969 L 38.632812 61.886719 "/>
<path style="fill:none;stroke-width:1.2;stroke-linecap:butt;stroke-linejoin:miter;stroke:rgb(0%,0%,0%);stroke-opacity:1;stroke-miterlimit:10;" d="M 38.632812 61.886719 L 45.386719 90.625 "/>
<path style="fill:none;stroke-width:1.2;stroke-linecap:butt;stroke-linejoin:miter;stroke:rgb(0%,0%,0%);stroke-opacity:1;stroke-miterlimit:10;" d="M 46.066406 63.171875 L 51.472656 86.160156 "/>
<path style="fill:none;stroke-width:1.2;stroke-linecap:butt;stroke-linejoin:miter;stroke:rgb(0%,0%,100%);stroke-opacity:1;stroke-miterlimit:10;" d="M 108.671875 136.398438 L 119.425781 126.289062 "/>
<path style="fill:none;stroke-width:1.2;stroke-linecap:butt;stroke-linejoin:miter;stroke:rgb(0%,0%,0%);stroke-opacity:1;stroke-miterlimit:10;" d="M 119.425781 126.289062 L 130.179688 116.179688 "/>
<path style=" stroke:none;fill-rule:nonzero;fill:rgb(100%,100%,100%);fill-opacity:1;" d="M 99.671875 129.398438 L 117.671875 129.398438 L 117.671875 143.398438 L 99.671875 143.398438 Z M 99.671875 129.398438 "/>
<g style="fill:rgb(0%,0%,100%);fill-opacity:1;">
  <use xlink:href="#glyph0-1" x="99.671875" y="140.537109"/>
  <use xlink:href="#glyph0-2" x="108.648438" y="140.537109"/>
</g>
<path style="fill:none;stroke-width:1.2;stroke-linecap:butt;stroke-linejoin:miter;stroke:rgb(0%,0%,0%);stroke-opacity:1;stroke-miterlimit:10;" d="M 133.5625 115.382812 L 130.183594 101.015625 "/>
<path style="fill:none;stroke-width:1.2;stroke-linecap:butt;stroke-linejoin:miter;stroke:rgb(100%,0%,0%);stroke-opacity:1;stroke-miterlimit:10;" d="M 130.183594 101.015625 L 126.804688 86.644531 "/>
<path style="fill:none;stroke-width:1.2;stroke-linecap:butt;stroke-linejoin:miter;stroke:rgb(0%,0%,0%);stroke-opacity:1;stroke-miterlimit:10;" d="M 126.800781 116.972656 L 123.421875 102.605469 "/>
<path style="fill:none;stroke-width:1.2;stroke-linecap:butt;stroke-linejoin:miter;stroke:rgb(100%,0%,0%);stroke-opacity:1;stroke-miterlimit:10;" d="M 123.421875 102.605469 L 120.042969 88.234375 "/>
<path style="fill:none;stroke-width:1.2;stroke-linecap:butt;stroke-linejoin:miter;stroke:rgb(0%,0%,0%);stroke-opacity:1;stroke-miterlimit:10;" d="M 130.179688 116.179688 L 144.3125 120.4375 "/>
<path style="fill:none;stroke-width:1.2;stroke-linecap:butt;stroke-linejoin:miter;stroke:rgb(100%,0%,0%);stroke-opacity:1;stroke-miterlimit:10;" d="M 144.3125 120.4375 L 158.445312 124.695312 "/>
<path style=" stroke:none;fill-rule:nonzero;fill:rgb(100%,100%,100%);fill-opacity:1;" d="M 118.425781 80.441406 L 128.425781 80.441406 L 128.425781 94.441406 L 118.425781 94.441406 Z M 118.425781 80.441406 "/>
<g style="fill:rgb(100%,0%,0%);fill-opacity:1;">
  <use xlink:href="#glyph0-3" x="118.425781" y="91.580078"/>
</g>
<path style="fill:none;stroke-width:1.2;stroke-linecap:butt;stroke-linejoin:miter;stroke:rgb(100%,0%,0%);stroke-opacity:1;stroke-miterlimit:10;" d="M 158.445312 124.695312 L 169.199219 114.585938 "/>
<path style="fill:none;stroke-width:1.2;stroke-linecap:butt;stroke-linejoin:miter;stroke:rgb(0%,0%,0%);stroke-opacity:1;stroke-miterlimit:10;" d="M 169.199219 114.585938 L 179.957031 104.476562 "/>
<path style=" stroke:none;fill-rule:nonzero;fill:rgb(100%,100%,100%);fill-opacity:1;" d="M 153.445312 117.695312 L 163.445312 117.695312 L 163.445312 131.695312 L 153.445312 131.695312 Z M 153.445312 117.695312 "/>
<g style="fill:rgb(100%,0%,0%);fill-opacity:1;">
  <use xlink:href="#glyph0-3" x="153.445312" y="128.833984"/>
</g>
<path style="fill:none;stroke-width:1.2;stroke-linecap:butt;stroke-linejoin:miter;stroke:rgb(0%,0%,0%);stroke-opacity:1;stroke-miterlimit:10;" d="M 179.957031 104.476562 L 208.21875 112.996094 "/>
<path style="fill:none;stroke-width:1.2;stroke-linecap:butt;stroke-linejoin:miter;stroke:rgb(0%,0%,0%);stroke-opacity:1;stroke-miterlimit:10;" d="M 208.21875 112.996094 L 229.730469 92.777344 "/>
<path style="fill:none;stroke-width:1.2;stroke-linecap:butt;stroke-linejoin:miter;stroke:rgb(0%,0%,0%);stroke-opacity:1;stroke-miterlimit:10;" d="M 215.128906 116.035156 L 232.335938 99.859375 "/>
<path style="fill:none;stroke-width:1.2;stroke-linecap:butt;stroke-linejoin:miter;stroke:rgb(0%,0%,0%);stroke-opacity:1;stroke-miterlimit:10;" d="M 214.976562 141.734375 L 208.21875 112.996094 "/>
<path style="fill:none;stroke-width:1.2;stroke-linecap:butt;stroke-linejoin:miter;stroke:rgb(0%,0%,0%);stroke-opacity:1;stroke-miterlimit:10;" d="M 229.730469 92.777344 L 257.996094 101.296875 "/>
<path style="fill:none;stroke-width:1.2;stroke-linecap:butt;stroke-linejoin:miter;stroke:rgb(0%,0%,0%);stroke-opacity:1;stroke-miterlimit:10;" d="M 257.996094 101.296875 L 264.75 130.03125 "/>
<path style="fill:none;stroke-width:1.2;stroke-linecap:butt;stroke-linejoin:miter;stroke:rgb(0%,0%,0%);stroke-opacity:1;stroke-miterlimit:10;" d="M 251.910156 105.757812 L 257.3125 128.75 "/>
<path style="fill:none;stroke-width:1.2;stroke-linecap:butt;stroke-linejoin:miter;stroke:rgb(0%,0%,0%);stroke-opacity:1;stroke-miterlimit:10;" d="M 264.75 130.03125 L 243.242188 150.25 "/>
<path style="fill:none;stroke-width:1.2;stroke-linecap:butt;stroke-linejoin:miter;stroke:rgb(0%,0%,0%);stroke-opacity:1;stroke-miterlimit:10;" d="M 243.242188 150.25 L 214.976562 141.734375 "/>
<path style="fill:none;stroke-width:1.2;stroke-linecap:butt;stroke-linejoin:miter;stroke:rgb(0%,0%,0%);stroke-opacity:1;stroke-miterlimit:10;" d="M 242.417969 142.75 L 219.804688 135.933594 "/>
<path style="fill:none;stroke-width:1.2;stroke-linecap:butt;stroke-linejoin:miter;stroke:rgb(0%,0%,0%);stroke-opacity:1;stroke-miterlimit:10;" d="M 101.1875 212.65625 L 88.84375 220.746094 "/>
<path style="fill:none;stroke-width:1.2;stroke-linecap:butt;stroke-linejoin:miter;stroke:rgb(100%,0%,0%);stroke-opacity:1;stroke-miterlimit:10;" d="M 88.84375 220.746094 L 76.496094 228.832031 "/>
<path style="fill:none;stroke-width:1.2;stroke-linecap:butt;stroke-linejoin:miter;stroke:rgb(0%,0%,0%);stroke-opacity:1;stroke-miterlimit:10;" d="M 104.996094 218.46875 L 92.648438 226.554688 "/>
<path style="fill:none;stroke-width:1.2;stroke-linecap:butt;stroke-linejoin:miter;stroke:rgb(100%,0%,0%);stroke-opacity:1;stroke-miterlimit:10;" d="M 92.648438 226.554688 L 80.300781 234.644531 "/>
<path style="fill:none;stroke-width:1.2;stroke-linecap:butt;stroke-linejoin:miter;stroke:rgb(0%,0%,0%);stroke-opacity:1;stroke-miterlimit:10;" d="M 103.09375 215.5625 L 116.269531 222.210938 "/>
<path style="fill:none;stroke-width:1.2;stroke-linecap:butt;stroke-linejoin:miter;stroke:rgb(100%,0%,0%);stroke-opacity:1;stroke-miterlimit:10;" d="M 116.269531 222.210938 L 129.449219 228.859375 "/>
<path style=" stroke:none;fill-rule:nonzero;fill:rgb(100%,100%,100%);fill-opacity:1;" d="M 68.398438 224.738281 L 78.398438 224.738281 L 78.398438 238.738281 L 68.398438 238.738281 Z M 68.398438 224.738281 "/>
<g style="fill:rgb(100%,0%,0%);fill-opacity:1;">
  <use xlink:href="#glyph0-3" x="68.398438" y="235.876953"/>
</g>
<path style="fill:none;stroke-width:1.2;stroke-linecap:butt;stroke-linejoin:miter;stroke:rgb(100%,0%,0%);stroke-opacity:1;stroke-miterlimit:10;" d="M 129.449219 228.859375 L 130.28125 243.597656 "/>
<path style="fill:none;stroke-width:1.2;stroke-linecap:butt;stroke-linejoin:miter;stroke:rgb(0%,0%,0%);stroke-opacity:1;stroke-miterlimit:10;" d="M 130.28125 243.597656 L 131.109375 258.332031 "/>
<path style=" stroke:none;fill-rule:nonzero;fill:rgb(100%,100%,100%);fill-opacity:1;" d="M 124.449219 221.859375 L 134.449219 221.859375 L 134.449219 235.859375 L 124.449219 235.859375 Z M 124.449219 221.859375 "/>
<g style="fill:rgb(100%,0%,0%);fill-opacity:1;">
  <use xlink:href="#glyph0-3" x="124.449219" y="232.998047"/>
</g>
</g>
</svg>

<svg xmlns="http://www.w3.org/2000/svg" xmlns:xlink="http://www.w3.org/1999/xlink" width="300pt" height="300pt" viewBox="0 0 300 300"><defs><symbol overflow="visible"><path d="M.594 2.125V-8.47h6V2.126zm.672-.672h4.671V-7.78h-4.67zm0 0"/></symbol><symbol overflow="visible" id="a"><path d="M1.172-8.75h1.594l3.89 7.313V-8.75h1.14V0H6.204L2.328-7.313V0H1.172zm0 0"/></symbol><symbol overflow="visible" id="b"><path d="M1.172-8.75H2.36v3.594h4.296V-8.75h1.188V0H6.656v-4.172H2.36V0H1.17zm0 0"/></symbol><symbol overflow="visible" id="c"><path d="M4.734-7.953c-.867 0-1.554.324-2.062.97-.5.635-.75 1.51-.75 2.624 0 1.094.25 1.965.75 2.61.508.637 1.195.953 2.062.953.852 0 1.532-.316 2.032-.953.507-.645.765-1.516.765-2.61 0-1.113-.257-1.988-.764-2.624-.5-.645-1.18-.97-2.032-.97zm0-.953c1.22 0 2.192.414 2.922 1.234.74.824 1.11 1.93 1.11 3.313 0 1.376-.37 2.477-1.11 3.298C6.926-.24 5.953.17 4.734.17c-1.23 0-2.214-.41-2.953-1.234C1.04-1.882.673-2.984.673-4.36c0-1.382.367-2.488 1.11-3.312.738-.82 1.722-1.234 2.952-1.234zm0 0"/></symbol></defs><g><path fill="#fff" d="M0 0h300v300H0z"/><path d="M101.43 186.09l27.547-11.82-5.707-8.715zm0 0"/><path d="M101.43 186.09l-26.356-13.297M101.43 186.09l1.664 29.472" stroke-width="1.2" stroke="#000" stroke-miterlimit="10" fill="none"/><path d="M75.074 172.793m-2.98-.356l.058 1.04m-3.035-1.395l.117 2.082m-3.097-2.434l.175 3.122m-3.156-3.477l.235 4.164m-3.21-4.52l.293 5.207m-3.274-5.56l.35 6.247m-3.33-6.6l.413 7.288m-3.39-7.645l.468 8.328m-3.448-8.68l.527 9.368m-3.485-9.72l.59 10.403" stroke="#000" stroke-miterlimit="10" fill="none"/><path d="M58.898 148.098l16.176 24.695M45.602 174.453l13.296-26.355" stroke-width="1.2" stroke="#000" stroke-miterlimit="10" fill="none"/><path d="M58.898 148.098m-2.054-2.188l-.625.836m-1.43-3.02l-1.25 1.67m-.806-3.857l-1.875 2.503m-.18-4.69l-2.496 3.342m.44-5.527l-3.12 4.176m1.066-6.364l-3.746 5.012m1.692-7.2l-4.368 5.85m2.313-8.033l-4.99 6.68m2.936-8.868l-5.617 7.516m3.577-9.684l-6.234 8.344" stroke="#000" stroke-miterlimit="10" fill="none"/><path d="M58.898 148.098l21.508-20.22" stroke-width="1.2" stroke="#000" stroke-miterlimit="10" fill="none"/><path d="M80.406 127.88m-.168-2.997l-1.015.238m.847-3.233l-2.03.48m1.862-3.472l-3.047.714m2.875-3.712l-4.058.954m3.89-3.95l-5.074 1.192m4.907-4.188l-6.09 1.434m5.922-4.43l-7.106 1.672m6.94-4.664l-8.123 1.906m7.954-4.902l-9.136 2.148m8.97-5.12l-10.146 2.382" stroke="#000" stroke-miterlimit="10" fill="none"/><path d="M80.406 127.88l14.133 4.257" stroke-width="1.2" stroke="#000" stroke-miterlimit="10" fill="none"/><path d="M94.54 132.137l14.132 4.26" stroke-width="1.2" stroke="#00f" stroke-miterlimit="10" fill="none"/><path d="M73.652 99.14L95.16 78.923M71.043 92.06l17.21-16.177M45.387 90.625l28.265 8.516M95.16 78.922l-6.754-28.738M88.406 50.184L60.14 41.668M83.574 55.984L60.96 49.168M60.14 41.668l-21.507 20.22M38.633 61.887l6.754 28.738M46.066 63.172l5.407 22.988" stroke-width="1.2" stroke="#000" stroke-miterlimit="10" fill="none"/><path d="M108.672 136.398l10.754-10.11" stroke-width="1.2" stroke="#00f" stroke-miterlimit="10" fill="none"/><path d="M119.426 126.29l10.754-10.11" stroke-width="1.2" stroke="#000" stroke-miterlimit="10" fill="none"/><path d="M99.672 129.398h18v14h-18zm0 0" fill="#fff"/><g fill="#00f"><use xlink:href="#a" x="99.672" y="140.537"/><use xlink:href="#b" x="108.648" y="140.537"/></g><path d="M133.563 115.383l-3.38-14.367" stroke-width="1.2" stroke="#000" stroke-miterlimit="10" fill="none"/><path d="M130.184 101.016l-3.38-14.37" stroke-width="1.2" stroke="#f00" stroke-miterlimit="10" fill="none"/><path d="M126.8 116.973l-3.378-14.368" stroke-width="1.2" stroke="#000" stroke-miterlimit="10" fill="none"/><path d="M123.422 102.605l-3.38-14.37" stroke-width="1.2" stroke="#f00" stroke-miterlimit="10" fill="none"/><path d="M130.18 116.18l14.132 4.257" stroke-width="1.2" stroke="#000" stroke-miterlimit="10" fill="none"/><path d="M144.313 120.438l14.132 4.257" stroke-width="1.2" stroke="#f00" stroke-miterlimit="10" fill="none"/><path d="M118.426 80.44h10v14h-10zm0 0" fill="#fff"/><use xlink:href="#c" x="118.426" y="91.58" fill="#f00"/><path d="M158.445 124.695l10.754-10.11" stroke-width="1.2" stroke="#f00" stroke-miterlimit="10" fill="none"/><path d="M169.2 114.586l10.757-10.11" stroke-width="1.2" stroke="#000" stroke-miterlimit="10" fill="none"/><path d="M153.445 117.695h10v14h-10zm0 0" fill="#fff"/><use xlink:href="#c" x="153.445" y="128.834" fill="#f00"/><path d="M179.957 104.477l28.262 8.52M208.22 112.996l21.51-20.22M215.13 116.035l17.206-16.176M214.977 141.734l-6.758-28.738M229.73 92.777l28.266 8.52M257.996 101.297l6.754 28.734M251.91 105.758l5.403 22.992M264.75 130.03l-21.508 20.22M243.242 150.25l-28.265-8.516M242.418 142.75l-22.613-6.816M101.188 212.656l-12.344 8.09" stroke-width="1.2" stroke="#000" stroke-miterlimit="10" fill="none"/><path d="M88.844 220.746l-12.348 8.086" stroke-width="1.2" stroke="#f00" stroke-miterlimit="10" fill="none"/><path d="M104.996 218.47l-12.348 8.085" stroke-width="1.2" stroke="#000" stroke-miterlimit="10" fill="none"/><path d="M92.648 226.555l-12.347 8.09" stroke-width="1.2" stroke="#f00" stroke-miterlimit="10" fill="none"/><path d="M103.094 215.563l13.176 6.648" stroke-width="1.2" stroke="#000" stroke-miterlimit="10" fill="none"/><path d="M116.27 222.21l13.18 6.65" stroke-width="1.2" stroke="#f00" stroke-miterlimit="10" fill="none"/><path d="M68.398 224.738h10v14h-10zm0 0" fill="#fff"/><use xlink:href="#c" x="68.398" y="235.877" fill="#f00"/><path d="M129.45 228.86l.83 14.738" stroke-width="1.2" stroke="#f00" stroke-miterlimit="10" fill="none"/><path d="M130.28 243.598l.83 14.734" stroke-width="1.2" stroke="#000" stroke-miterlimit="10" fill="none"/><path d="M124.45 221.86h10v14h-10zm0 0" fill="#fff"/><use xlink:href="#c" x="124.449" y="232.998" fill="#f00"/></g></svg>
